cssgg/menu-cake.svg

<svg
  width="24"
  height="24"
  viewBox="0 0 24 24"
  fill="none"
  xmlns="http://www.w3.org/2000/svg"
>
  <path
    d="M12 8C13.1046 8 14 7.10457 14 6C14 4.89543 13.1046 4 12 4C10.8954 4 10 4.89543 10 6C10 7.10457 10.8954 8 12 8Z"
    fill="currentColor"
  />
  <path
    d="M5 10C4.44772 10 4 10.4477 4 11C4 11.5523 4.44772 12 5 12H19C19.5523 12 20 11.5523 20 11C20 10.4477 19.5523 10 19 10H5Z"
    fill="currentColor"
  />
  <path
    d="M4 15C4 14.4477 4.44772 14 5 14H19C19.5523 14 20 14.4477 20 15C20 15.5523 19.5523 16 19 16H5C4.44772 16 4 15.5523 4 15Z"
    fill="currentColor"
  />
  <path
    d="M5 18C4.44772 18 4 18.4477 4 19C4 19.5523 4.44772 20 5 20H19C19.5523 20 20 19.5523 20 19C20 18.4477 19.5523 18 19 18H5Z"
    fill="currentColor"
  />
</svg>

<svg viewBox="0 0 24 24" xmlns="http://www.w3.org/2000/svg"><g><path d="M12 8c1.1 0 2-.9 2-2 0-1.11-.9-2-2-2 -1.11 0-2 .89-2 2 0 1.1.89 2 2 2Z"/><path d="M5 10c-.56 0-1 .44-1 1 0 .55.44 1 1 1h14c.55 0 1-.45 1-1 0-.56-.45-1-1-1H5Z"/><path d="M4 15c0-.56.44-1 1-1h14c.55 0 1 .44 1 1 0 .55-.45 1-1 1H5c-.56 0-1-.45-1-1Z"/><path d="M5 18c-.56 0-1 .44-1 1 0 .55.44 1 1 1h14c.55 0 1-.45 1-1 0-.56-.45-1-1-1H5Z"/></g></svg>
